client/public/assets/icons/utility/richtextnumberedlist.svg

<?xml version="1.0"?><svg xmlns="http://www.w3.org/2000/svg" width="52" height="52" viewBox="0 0 52 52"><path fill="#fff" d="m50 6.5v3c0 0.8-0.7 1.5-1.5 1.5h-27c-0.8 0-1.5-0.7-1.5-1.5v-3c0-0.8 0.7-1.5 1.5-1.5h27c0.8 0 1.5 0.7 1.5 1.5z m-28.5 14.5h18c0.8 0 1.5-0.7 1.5-1.5v-3c0-0.8-0.7-1.5-1.5-1.5h-18c-0.8 0-1.5 0.7-1.5 1.5v3c0 0.8 0.7 1.5 1.5 1.5z m27 9h-27c-0.8 0-1.5 0.7-1.5 1.5v3c0 0.8 0.7 1.5 1.5 1.5h27c0.8 0 1.5-0.7 1.5-1.5v-3c0-0.8-0.7-1.5-1.5-1.5z m-9 10h-18c-0.8 0-1.5 0.7-1.5 1.5v3c0 0.8 0.7 1.5 1.5 1.5h18c0.8 0 1.5-0.7 1.5-1.5v-3c0-0.8-0.7-1.5-1.5-1.5z m-36-32h2.5v12.5c0 0.8 0.7 1.5 1.5 1.5h1c0.8 0 1.5-0.7 1.5-1.5v-14.5c0-1.1-0.9-2-2-2h-4.5c-0.8 0-1.5 0.7-1.5 1.5v1c0 0.8 0.7 1.5 1.5 1.5z m8.5 20h-8.5c-0.8 0-1.5 0.7-1.5 1.5v1c0 0.8 0.7 1.5 1.5 1.5h6.5v4h-6c-1.1 0-2 0.9-2 2v8c0 1.1 0.9 2 2 2h8.5c0.8 0 1.5-0.7 1.5-1.5v-1c0-0.8-0.7-1.5-1.5-1.5h-6.5v-4h6c1.1 0 2-0.9 2-2v-8c0-1.1-0.9-2-2-2z"></path></svg>

<?xml version="1.0" encoding="utf-8"?>
<!-- Generator: Adobe Illustrator 18.1.1, SVG Export Plug-In . SVG Version: 6.00 Build 0)  -->
<svg version="1.1" id="Layer_1" xmlns="http://www.w3.org/2000/svg" xmlns:xlink="http://www.w3.org/1999/xlink" x="0px" y="0px"
	 width="52px" height="52px" viewBox="0 0 52 52" enable-background="new 0 0 52 52" xml:space="preserve">
<path fill="#FFFFFF" d="M50,6.5v3c0,0.8-0.7,1.5-1.5,1.5h-27c-0.8,0-1.5-0.7-1.5-1.5v-3C20,5.7,20.7,5,21.5,5h27
	C49.3,5,50,5.7,50,6.5z M21.5,21h18c0.8,0,1.5-0.7,1.5-1.5v-3c0-0.8-0.7-1.5-1.5-1.5h-18c-0.8,0-1.5,0.7-1.5,1.5v3
	C20,20.3,20.7,21,21.5,21z M48.5,30h-27c-0.8,0-1.5,0.7-1.5,1.5v3c0,0.8,0.7,1.5,1.5,1.5h27c0.8,0,1.5-0.7,1.5-1.5v-3
	C50,30.7,49.3,30,48.5,30z M39.5,40h-18c-0.8,0-1.5,0.7-1.5,1.5v3c0,0.8,0.7,1.5,1.5,1.5h18c0.8,0,1.5-0.7,1.5-1.5v-3
	C41,40.7,40.3,40,39.5,40z M3.5,8H6v12.5C6,21.3,6.7,22,7.5,22h1c0.8,0,1.5-0.7,1.5-1.5V6c0-1.1-0.9-2-2-2H3.5C2.7,4,2,4.7,2,5.5v1
	C2,7.3,2.7,8,3.5,8z M12,28H3.5C2.7,28,2,28.7,2,29.5v1C2,31.3,2.7,32,3.5,32H10v4H4c-1.1,0-2,0.9-2,2v8c0,1.1,0.9,2,2,2h8.5
	c0.8,0,1.5-0.7,1.5-1.5v-1c0-0.8-0.7-1.5-1.5-1.5H6v-4h6c1.1,0,2-0.9,2-2v-8C14,28.9,13.1,28,12,28z"/>
</svg>
